static/images/clients/logo-pentagram-cell.svg

<svg width="256" height="166" viewBox="0 0 256 166" fill="none" xmlns="http://www.w3.org/2000/svg">
<rect opacity="0.1" width="256" height="166" fill="#95BCD1"/>
<path d="M58.7216 80.6876V88.7575C58.7216 89.4048 58.7648 89.8796 58.8944 90.0953C58.9376 90.2248 59.1105 90.3111 59.4129 90.3543C59.6722 90.4837 60.2338 90.57 61.098 90.6132C61.9189 90.6563 63.0855 90.7427 64.5546 90.7427V91.0879H49V90.7427C50.2098 90.7427 51.2468 90.6995 52.0245 90.6132C52.8022 90.57 53.3639 90.4406 53.6232 90.3543C53.8824 90.2679 54.0552 90.1385 54.1416 90.0953C54.2713 89.9227 54.3145 89.4912 54.3145 88.7575V70.2872C54.3145 69.6399 54.2713 69.2083 54.1416 68.9926C54.0984 68.8631 53.9688 68.8199 53.7096 68.7336C53.0615 68.4747 51.4196 68.3452 49.0432 68.3452V68H62.9991C65.8508 68 68.0975 68.6473 69.7394 69.942C71.2949 71.1503 72.0726 72.7902 72.0726 74.7753C72.0726 76.1131 71.4677 77.4078 70.3011 78.5298C68.7889 79.9108 66.8013 80.6012 64.2953 80.6012H58.7216V80.6876ZM58.7216 80.3423H62.351C64.3385 80.3423 65.7644 79.8244 66.5421 78.7887C67.2334 77.8825 67.5358 76.5015 67.5358 74.5596C67.5358 72.4881 67.1038 70.9777 66.1964 69.942C65.2891 68.8631 63.9497 68.3884 62.0485 68.3884H60.3203C59.8018 68.3884 59.4129 68.4316 59.1969 68.5179C58.9808 68.561 58.808 68.7336 58.7648 68.9494C58.7648 69.1652 58.7216 69.5967 58.7216 70.3304V80.3423V80.3423Z" fill="#111111"/>
<path d="M76.134 83.7515C76.134 86.2976 76.3933 88.1964 77.0414 89.3185C77.6463 90.4837 78.5968 91.0447 79.8498 91.0447C81.1893 91.0447 82.3126 90.6131 83.3064 89.7069C84.5162 88.628 85.1643 87.1607 85.1643 85.3051H85.4236C85.4236 87.0744 84.8619 88.5848 83.6953 89.7069C82.5287 90.8721 81.0164 91.4331 79.1153 91.4331C77.5167 91.4331 76.0476 90.8289 74.7514 89.5774C73.1959 88.1101 72.4182 86.2976 72.4182 83.9673C72.4182 81.4643 73.1959 79.3928 74.7082 77.8393C76.0476 76.5015 77.5599 75.7678 79.2449 75.7678C80.8004 75.7678 82.0966 76.1994 83.0904 77.1056C84.6026 78.4434 85.3803 80.6012 85.3803 83.6652H76.1772V83.7515H76.134ZM82.2694 83.3631C82.2694 81.0327 82.0534 79.3065 81.6645 78.055C81.2757 76.8467 80.5844 76.1994 79.677 76.1994C78.3808 76.1994 77.4302 76.7604 76.955 77.9256C76.3933 79.0908 76.1772 80.8601 76.1772 83.3199H82.2694V83.3631Z" fill="#111111"/>
<path d="M93.0281 82.3706V89.448C93.0281 89.9659 93.0713 90.2248 93.1577 90.3974C93.2009 90.4406 93.3305 90.57 93.5033 90.6132C93.6762 90.6563 94.0218 90.7426 94.4539 90.7858C94.886 90.829 95.3612 90.8289 95.6637 90.8289V91.1742H86.5038V90.8289C87.0223 90.8289 87.584 90.829 88.0592 90.7858C88.5777 90.7426 89.0098 90.6132 89.4419 90.5269C89.6147 90.3974 89.6579 90.0953 89.6579 89.448V78.5298C89.6579 78.314 89.6579 78.0982 89.6579 77.8825C89.6579 77.6667 89.6147 77.4941 89.4851 77.3646L89.269 77.0194C89.053 76.8468 88.1024 76.7604 86.547 76.7604V76.4152L93.0281 75.8542V80.4286C93.2009 79.436 93.4601 78.4866 93.9786 77.7098C94.6267 76.5878 95.3612 76.0268 96.0958 75.9405C96.8303 75.8973 97.3056 75.811 97.5648 75.811C99.077 75.811 100.244 76.2426 101.151 77.192C101.886 77.9688 102.274 78.875 102.274 79.9108V89.448C102.274 89.9659 102.318 90.2248 102.404 90.3974C102.447 90.4406 102.577 90.57 102.75 90.6132C102.922 90.6563 103.311 90.7426 103.83 90.7858C104.348 90.829 104.824 90.8289 105.299 90.8289V91.1742H96.0958V90.8289C96.4846 90.8289 96.9167 90.829 97.4352 90.7858C97.9537 90.7426 98.3857 90.6132 98.7746 90.5269C98.9474 90.3974 98.9906 90.0953 98.9906 89.448V80.2991C98.9906 79.134 98.861 78.314 98.7314 77.6667C98.3857 76.6741 97.824 76.1563 97.0031 76.1563C95.8797 76.1563 95.0156 76.8036 94.3243 78.2277C93.633 79.3066 93.2441 80.6875 93.0281 82.3706Z" fill="#111111"/>
<path d="M116.057 83.5358V85.2188C116.057 85.7798 116.057 86.2977 116.101 86.7724C116.101 88.4554 115.928 89.6206 115.539 90.2248C115.02 91.0447 113.983 91.5194 112.471 91.5194C111.002 91.5194 109.965 91.1742 109.274 90.4406C108.626 89.7501 108.28 88.7575 108.28 87.506V77.3215H105.428V76.9762C107.373 76.4584 108.885 75.3795 109.879 73.567C110.657 72.0997 111.089 70.503 111.089 68.7336H111.693V76.3289H115.841V77.4078H111.693V87.1608C111.693 88.4554 111.737 89.2754 111.866 89.6638C112.082 90.57 112.644 91.0016 113.422 91.0016C114.372 91.0016 115.02 90.4837 115.323 89.448C115.539 88.7144 115.669 87.3766 115.669 85.3914V83.6652H116.014V83.5358H116.057Z" fill="#111111"/>
<path d="M126.254 80.7307V78.6161C126.254 77.6667 126.081 77.0194 125.822 76.6741C125.563 76.3289 124.872 76.1563 123.878 76.1563C123.057 76.1563 122.322 76.3289 121.718 76.6741C121.113 77.0194 120.724 77.4078 120.508 77.9688C120.637 77.9688 120.724 77.9256 120.853 77.9256C121.285 77.9256 121.674 78.0982 121.977 78.4866C122.236 78.8319 122.409 79.2634 122.409 79.695C122.409 80.2128 122.236 80.6444 121.847 80.9896C121.501 81.3349 121.069 81.5075 120.551 81.5075C120.205 81.5075 119.946 81.378 119.73 81.2917C118.995 80.8602 118.65 80.2991 118.65 79.5655C118.65 79.2203 118.693 78.8319 118.866 78.4003C119.212 77.4509 120.032 76.8036 121.372 76.3289C122.322 75.9836 123.316 75.8973 124.267 75.8973C126.038 75.8973 127.378 76.2426 128.285 76.8899C129.106 77.4941 129.495 78.2277 129.495 79.134V87.0313C129.495 88.4986 129.538 89.3617 129.624 89.7069C129.797 90.5269 130.229 90.9153 130.921 90.9153C131.526 90.9153 132.001 90.57 132.217 89.9658C132.433 89.3185 132.563 88.4123 132.563 87.1608C132.563 86.8155 132.563 86.5135 132.563 86.1682C132.563 85.823 132.563 85.5209 132.563 85.0893V84.7441H132.995V86.2977C132.995 86.8155 132.995 87.2902 133.038 87.765C133.038 89.1459 132.865 90.0953 132.519 90.57C132.087 91.1742 131.18 91.4763 129.884 91.4763C128.803 91.4763 128.112 91.3037 127.594 90.9153C126.989 90.4837 126.6 89.7501 126.427 88.7575C125.909 89.9227 125.131 90.6995 124.137 91.0879C123.532 91.3036 122.755 91.4331 121.718 91.4331C120.724 91.4331 119.816 91.2173 119.082 90.6995C118.088 90.0522 117.526 89.1028 117.526 87.765C117.526 86.4703 118.045 85.3483 119.039 84.4852C120.032 83.6652 121.285 83.1474 122.668 83.0179C124.137 82.8884 125.088 82.6727 125.563 82.4569C125.995 82.2411 126.254 81.6369 126.254 80.7307ZM126.168 87.2471V82.4569C125.909 82.8453 125.433 83.0611 124.872 83.1905C124.31 83.32 123.748 83.3631 123.273 83.4063C122.625 83.5789 122.063 83.9673 121.588 84.5715C121.069 85.3051 120.853 86.2977 120.853 87.5923C120.853 88.9733 120.983 89.9227 121.242 90.4405C121.501 90.9584 121.977 91.1742 122.538 91.1742C123.446 91.1742 124.267 90.7858 125.001 90.0522C125.779 89.2322 126.168 88.326 126.168 87.2471Z" fill="#111111"/>
<path d="M137.013 85.0893C136.235 84.7009 135.673 84.1831 135.241 83.5789C134.809 82.9747 134.593 82.1979 134.593 81.2917C134.593 79.7812 135.241 78.4434 136.667 77.4077C137.963 76.4152 139.346 75.9405 140.858 75.9405C141.29 75.9405 141.809 75.9836 142.327 76.1131C142.846 76.2425 143.278 76.372 143.71 76.5446V75.7247C143.71 74.6027 143.926 73.869 144.315 73.4806C144.704 73.1354 145.309 72.9628 146.086 72.9628C146.432 72.9628 146.734 73.0922 147.037 73.3512C147.296 73.5669 147.426 73.9122 147.426 74.3006C147.426 75.1205 147.037 75.5952 146.259 75.5952C145.438 75.5952 145.049 75.2068 145.049 74.43C145.049 74.2574 145.049 74.1711 145.093 74.0416C145.136 73.9122 145.222 73.8259 145.265 73.6532C144.747 73.6964 144.488 73.9122 144.315 74.2574C144.142 74.6027 144.099 75.0774 144.099 75.6384C144.099 76.1562 144.142 76.5446 144.142 76.7604C145.093 77.192 145.827 77.8393 146.389 78.5298C146.95 79.2634 147.167 80.1265 147.167 81.0759C147.167 82.5432 146.518 83.7515 145.093 84.6578C143.883 85.4777 142.457 85.9524 140.902 85.9524C139.778 85.9524 138.784 85.7798 137.791 85.3914C136.97 85.3914 136.278 85.5209 135.803 85.7798C135.155 86.125 134.809 86.7292 134.809 87.5491C134.809 87.8944 135.069 88.1533 135.717 88.3691C136.278 88.5849 137.402 88.7143 139.044 88.7143H141.118C143.235 88.7143 144.877 88.9732 145.957 89.5343C147.339 90.2679 148.031 91.4331 148.031 93.1161C148.031 94.8855 147.426 96.2233 146.13 97.1727C144.833 98.1221 143.235 98.6399 141.204 98.6399C138.784 98.6399 136.84 98.2516 135.414 97.4316C133.945 96.6548 133.254 95.7054 133.254 94.7128C133.254 94.0655 133.643 93.5045 134.42 93.0298C134.982 92.6846 135.803 92.4256 136.97 92.0804C135.889 91.692 135.112 91.3036 134.636 90.8721C133.988 90.2679 133.556 89.4911 133.556 88.5417C133.556 87.5491 133.816 86.686 134.464 86.0819C135.069 85.3482 135.889 85.0893 137.013 85.0893ZM141.29 98.3379C142.889 98.3379 144.142 97.9926 145.049 97.3453C145.957 96.698 146.389 95.8349 146.389 94.8855C146.389 93.7203 146 92.9435 145.265 92.5551C144.531 92.1667 143.191 91.9509 141.247 91.9509C139 91.9509 137.445 92.2099 136.624 92.7277C135.976 93.1593 135.544 93.8929 135.544 94.9718C135.544 95.9643 135.803 96.7411 136.365 97.259C137.359 97.9495 138.957 98.3379 141.29 98.3379ZM143.883 80.9464C143.883 79.436 143.667 78.2708 143.278 77.5372C142.846 76.6309 141.982 76.1994 140.815 76.1994C139.735 76.1994 138.957 76.6309 138.482 77.494C137.963 78.314 137.747 79.4792 137.747 80.9464C137.747 82.6295 137.963 83.8378 138.352 84.5714C138.741 85.3051 139.562 85.6503 140.815 85.6503C141.938 85.6503 142.673 85.2619 143.148 84.5283C143.667 83.7515 143.883 82.5863 143.883 80.9464Z" fill="#111111"/>
<path d="M152.74 78.2277C152.74 77.7099 152.697 77.4509 152.567 77.3215C152.395 77.1057 152.222 76.9331 152.135 76.8899C151.703 76.7604 150.753 76.7173 149.197 76.7173V76.3721L156.11 75.811V80.3855C156.24 79.3929 156.542 78.4866 157.104 77.5804C157.882 76.4152 158.876 75.811 160.042 75.811C160.474 75.811 160.993 75.9837 161.511 76.2426C162.03 76.5015 162.419 76.8899 162.591 77.3646C162.764 77.7962 162.851 78.1846 162.851 78.5729C162.851 79.5224 162.462 80.1697 161.684 80.5149C161.511 80.6444 161.252 80.6875 160.906 80.6875C160.388 80.6875 159.999 80.5149 159.697 80.1697C159.351 79.8244 159.178 79.3497 159.178 78.6593C159.178 78.2277 159.351 77.8393 159.697 77.3646C160.042 76.9331 160.431 76.7604 160.82 76.8468C160.647 76.3289 160.258 76.07 159.524 76.07C158.876 76.07 158.141 76.5878 157.45 77.5804C156.542 78.875 156.11 80.5149 156.11 82.5864V89.2754C156.11 89.7932 156.154 90.0522 156.24 90.2248C156.283 90.2679 156.413 90.3974 156.586 90.4406C157.104 90.6132 158.141 90.6995 159.697 90.6995V91.0447H149.197V90.6995C149.845 90.6995 150.537 90.6995 151.098 90.6563C151.66 90.6132 152.179 90.4837 152.567 90.3974C152.74 90.2679 152.783 89.9658 152.783 89.3185V78.2277H152.74Z" fill="#111111"/>
<path d="M172.616 80.7307V78.6161C172.616 77.6667 172.443 77.0194 172.183 76.6741C171.924 76.3289 171.233 76.1563 170.239 76.1563C169.418 76.1563 168.684 76.3289 168.079 76.6741C167.474 77.0194 167.085 77.4078 166.869 77.9688C166.999 77.9688 167.085 77.9256 167.215 77.9256C167.647 77.9256 168.036 78.0982 168.338 78.4866C168.597 78.8319 168.77 79.2634 168.77 79.695C168.77 80.2128 168.597 80.6444 168.208 80.9896C167.863 81.3349 167.431 81.5075 166.912 81.5075C166.567 81.5075 166.307 81.378 166.091 81.2917C165.357 80.8602 165.011 80.2991 165.011 79.5655C165.011 79.2203 165.054 78.8319 165.227 78.4003C165.573 77.4509 166.394 76.8036 167.733 76.3289C168.684 75.9836 169.677 75.8973 170.628 75.8973C172.399 75.8973 173.739 76.2426 174.646 76.8899C175.467 77.4941 175.856 78.2277 175.856 79.134V87.0313C175.856 88.4986 175.899 89.3617 175.986 89.7069C176.158 90.5269 176.591 90.9153 177.282 90.9153C177.887 90.9153 178.362 90.57 178.578 89.9658C178.794 89.3185 178.924 88.4123 178.924 87.1608C178.924 86.8155 178.924 86.5135 178.924 86.1682C178.924 85.823 178.924 85.5209 178.924 85.0893V84.7441H179.356V86.2977C179.356 86.8155 179.356 87.2902 179.399 87.765C179.399 89.1459 179.226 90.0953 178.881 90.57C178.448 91.1742 177.541 91.4763 176.245 91.4763C175.165 91.4763 174.473 91.3037 173.955 90.9153C173.35 90.4837 172.961 89.7501 172.788 88.7575C172.27 89.9227 171.492 90.6995 170.498 91.0879C169.893 91.3036 169.116 91.4331 168.079 91.4331C167.085 91.4331 166.178 91.2173 165.443 90.6995C164.449 90.0522 163.888 89.1028 163.888 87.765C163.888 86.4703 164.406 85.3483 165.4 84.4852C166.394 83.6652 167.647 83.1474 169.029 83.0179C170.498 82.8884 171.449 82.6727 171.924 82.4569C172.399 82.2411 172.616 81.6369 172.616 80.7307ZM172.486 87.2471V82.4569C172.227 82.8453 171.751 83.0611 171.19 83.1905C170.628 83.32 170.066 83.3631 169.591 83.4063C168.943 83.5789 168.381 83.9673 167.906 84.5715C167.387 85.3051 167.171 86.2977 167.171 87.5923C167.171 88.9733 167.301 89.9227 167.56 90.4405C167.82 90.9584 168.295 91.1742 168.856 91.1742C169.764 91.1742 170.585 90.7858 171.319 90.0522C172.183 89.2322 172.486 88.326 172.486 87.2471Z" fill="#111111"/>
<path d="M195.213 80.1697C195.386 79.0477 195.645 78.2277 196.034 77.5372C196.639 76.5447 197.416 75.9405 198.497 75.811C198.669 75.811 198.842 75.811 199.058 75.7679C199.274 75.7679 199.404 75.7247 199.49 75.7247C200.959 75.7247 202.169 76.1563 202.99 77.1057C203.725 77.8825 204.113 78.7887 204.113 79.8244V89.3617C204.113 89.7932 204.157 90.1385 204.243 90.2679C204.286 90.3974 204.416 90.4406 204.589 90.5269C204.762 90.57 205.107 90.6563 205.539 90.6995C205.971 90.7426 206.36 90.7426 206.706 90.7426V91.0879H198.237V90.7426C198.799 90.7426 199.231 90.7426 199.577 90.6995C199.922 90.6563 200.225 90.5269 200.57 90.3543C200.743 90.2248 200.787 89.9227 200.787 89.3617V80.256C200.787 79.134 200.657 78.2709 200.527 77.6235C200.182 76.631 199.62 76.1131 198.842 76.1131C198.021 76.1131 197.287 76.5015 196.725 77.2783C196.12 78.1846 195.602 79.7813 195.256 82.1117V89.3185C195.256 89.8364 195.299 90.0953 195.386 90.2679C195.429 90.3111 195.558 90.3974 195.731 90.4837C195.904 90.5269 196.163 90.6132 196.639 90.6563C197.071 90.6995 197.46 90.7858 197.848 90.7858V91.131H189.293V90.7858C190.201 90.7858 190.892 90.7426 191.411 90.5269L191.67 90.3974C191.843 90.2679 191.886 89.9659 191.886 89.3185V80.2128C191.886 79.0477 191.756 78.2277 191.627 77.5804C191.281 76.5878 190.719 76.07 189.898 76.07C188.818 76.07 187.997 76.7173 187.392 78.1414C187.003 79.0908 186.658 80.4718 186.442 82.2843V89.3617C186.442 89.8795 186.485 90.1385 186.571 90.3111C186.615 90.3543 186.744 90.4837 186.917 90.5269C187.09 90.57 187.436 90.6563 187.868 90.6995C188.3 90.7426 188.689 90.7426 189.034 90.7426V91.0879H179.874V90.7426C180.393 90.7426 180.868 90.7426 181.387 90.6995C181.905 90.6563 182.337 90.5269 182.769 90.4406C182.942 90.3111 182.985 90.009 182.985 89.3617V78.4866C182.985 78.2709 182.985 78.0551 182.985 77.8393C182.985 77.6235 182.942 77.4509 182.812 77.3215C182.64 77.1057 182.467 76.9331 182.38 76.8899C182.035 76.7604 181.214 76.7173 179.917 76.7173V76.4584L186.399 75.8542V80.4286C186.571 79.2634 186.831 78.3572 187.176 77.7099C187.738 76.5878 188.559 75.9837 189.639 75.8542C189.855 75.8542 190.071 75.811 190.244 75.811C190.417 75.811 190.59 75.811 190.633 75.811C192.188 75.811 193.312 76.2426 194.133 77.1057C194.824 77.8825 195.213 78.9182 195.213 80.1697Z" fill="#111111"/>
</svg>

<svg xmlns="http://www.w3.org/2000/svg" fill="none" viewBox="0 0 256 166">
  <path fill="#95BCD1" d="M0 0h256v166H0z" opacity=".1"/>
  <path fill="#111" d="M58.72 80.69v8.07c0 .64.04 1.12.17 1.34.05.12.22.21.52.25.26.13.82.22 1.69.26.82.05 1.99.13 3.45.13v.35H49v-.35c1.21 0 2.25-.04 3.02-.13a6.62 6.62 0 001.6-.26c.26-.08.44-.21.52-.25.13-.18.17-.6.17-1.34V70.29c0-.65-.04-1.08-.17-1.3-.04-.13-.17-.17-.43-.26-.65-.26-2.29-.38-4.67-.38V68H63c2.85 0 5.1.65 6.74 1.94a5.85 5.85 0 012.33 4.84 5.2 5.2 0 01-1.77 3.75c-1.51 1.38-3.5 2.07-6 2.07h-5.58v.09zm0-.35h3.63c1.99 0 3.41-.52 4.2-1.55.68-.9.99-2.29.99-4.23 0-2.07-.44-3.58-1.34-4.62-.91-1.08-2.25-1.55-4.15-1.55h-1.73c-.52 0-.9.04-1.12.13a.55.55 0 00-.44.43c0 .22-.04.65-.04 1.38v10.01zM76.13 83.75c0 2.55.26 4.45.91 5.57a2.97 2.97 0 002.81 1.72 4.9 4.9 0 003.46-1.33 5.63 5.63 0 001.85-4.4h.26c0 1.76-.56 3.27-1.72 4.4a6.16 6.16 0 01-4.58 1.72c-1.6 0-3.07-.6-4.37-1.85a7.29 7.29 0 01-2.33-5.61c0-2.5.78-4.58 2.29-6.13a6.34 6.34 0 014.53-2.07 5.5 5.5 0 013.85 1.34c1.51 1.33 2.29 3.5 2.29 6.56h-9.2v.08h-.05zm6.14-.39c0-2.33-.22-4.05-.6-5.3-.4-1.21-1.09-1.86-2-1.86-1.29 0-2.24.56-2.72 1.73-.56 1.16-.77 2.93-.77 5.39h6.09v.04zM93.03 82.37v7.08c0 .52.04.77.13.95.04.04.17.17.34.21.18.05.52.13.95.18.44.04.91.04 1.21.04v.34H86.5v-.34c.52 0 1.08 0 1.56-.04.52-.05.95-.18 1.38-.26.17-.13.22-.43.22-1.08V78.53v-.65c0-.21-.05-.39-.17-.52l-.22-.34c-.22-.17-1.17-.26-2.72-.26v-.34l6.48-.57v4.58c.17-1 .43-1.94.95-2.72.65-1.12 1.38-1.68 2.12-1.77.73-.04 1.2-.13 1.46-.13 1.52 0 2.68.43 3.6 1.38a3.85 3.85 0 011.11 2.72v9.54c0 .52.05.77.13.95.05.04.18.17.35.21.17.05.56.13 1.08.18.52.04 1 .04 1.47.04v.34h-9.2v-.34c.38 0 .82 0 1.34-.04.51-.05.95-.18 1.33-.26.18-.13.22-.43.22-1.08V80.3c0-1.17-.13-1.99-.26-2.63-.34-1-.9-1.51-1.73-1.51-1.12 0-1.98.64-2.68 2.07a9.97 9.97 0 00-1.3 4.14zM116.06 83.54v1.68c0 .56 0 1.08.04 1.55 0 1.69-.17 2.85-.56 3.45-.52.82-1.56 1.3-3.07 1.3-1.47 0-2.5-.35-3.2-1.08-.64-.69-.99-1.68-.99-2.93V77.32h-2.85v-.34a6.82 6.82 0 004.45-3.41 10.15 10.15 0 001.2-4.84h.61v7.6h4.15v1.08h-4.15v9.75c0 1.3.05 2.12.18 2.5.21.91.77 1.34 1.55 1.34.95 0 1.6-.52 1.9-1.55.22-.74.35-2.07.35-4.06v-1.72h.34v-.13h.05zM126.25 80.73v-2.11c0-.95-.17-1.6-.43-1.95-.26-.34-.95-.51-1.94-.51-.82 0-1.56.17-2.16.51-.6.35-1 .74-1.21 1.3.13 0 .21-.04.34-.04.44 0 .82.17 1.13.56.26.34.43.77.43 1.2 0 .52-.17.95-.56 1.3-.35.34-.78.52-1.3.52-.34 0-.6-.13-.82-.22-.73-.43-1.08-1-1.08-1.72 0-.35.04-.74.22-1.17.34-.95 1.16-1.6 2.5-2.07a8.42 8.42 0 012.9-.43c1.77 0 3.1.34 4.02.99.82.6 1.2 1.34 1.2 2.24v7.9c0 1.47.05 2.33.13 2.68.18.82.6 1.2 1.3 1.2.6 0 1.08-.34 1.3-.94.21-.65.34-1.56.34-2.8v-1V84.74h.44v1.56c0 .52 0 .99.04 1.47 0 1.38-.17 2.33-.52 2.8-.43.6-1.34.9-2.64.9-1.08 0-1.77-.17-2.29-.55-.6-.44-.99-1.17-1.16-2.16a4.18 4.18 0 01-2.3 2.33 7.2 7.2 0 01-2.41.34c-1 0-1.9-.21-2.64-.73-1-.65-1.55-1.6-1.55-2.94 0-1.29.52-2.41 1.5-3.27 1-.82 2.25-1.34 3.64-1.47 1.47-.13 2.42-.35 2.9-.56.43-.22.68-.82.68-1.73zm-.08 6.52v-4.8c-.26.4-.74.61-1.3.74s-1.12.17-1.6.22c-.64.17-1.2.56-1.68 1.16a5.13 5.13 0 00-.74 3.02c0 1.38.13 2.33.4 2.85.25.52.73.73 1.29.73.9 0 1.73-.38 2.46-1.12a3.92 3.92 0 001.17-2.8zM137.01 85.09a4.72 4.72 0 01-1.77-1.51 3.87 3.87 0 01-.65-2.29c0-1.5.65-2.85 2.08-3.88a6.7 6.7 0 015.66-1.3c.52.13.95.26 1.38.43v-.82c0-1.12.22-1.85.6-2.24.4-.34 1-.52 1.78-.52.34 0 .64.13.95.4.26.2.39.55.39.94 0 .82-.4 1.3-1.17 1.3-.82 0-1.21-.4-1.21-1.17 0-.17 0-.26.04-.39.05-.13.13-.21.17-.39-.51.05-.77.26-.94.6a3.2 3.2 0 00-.22 1.39c0 .52.04.9.04 1.12a6.21 6.21 0 012.25 1.77c.56.73.78 1.6.78 2.55 0 1.46-.65 2.67-2.08 3.58a7.41 7.41 0 01-4.19 1.3 8.29 8.29 0 01-3.1-.57c-.83 0-1.52.13-2 .39-.65.34-1 .95-1 1.77 0 .34.27.6.92.82.56.21 1.68.34 3.32.34h2.08c2.12 0 3.76.26 4.84.82 1.38.74 2.07 1.9 2.07 3.59 0 1.77-.6 3.1-1.9 4.05a8.05 8.05 0 01-4.93 1.47c-2.42 0-4.36-.39-5.79-1.2-1.47-.79-2.16-1.73-2.16-2.73 0-.64.4-1.2 1.17-1.68.56-.35 1.38-.6 2.55-.95a7.18 7.18 0 01-2.33-1.2 3.14 3.14 0 01-1.08-2.34c0-1 .26-1.85.9-2.46.6-.73 1.43-1 2.55-1zm4.28 13.25c1.6 0 2.85-.35 3.76-1a2.95 2.95 0 001.34-2.45c0-1.17-.39-1.95-1.13-2.33-.73-.4-2.07-.6-4.01-.6-2.25 0-3.8.25-4.63.77-.64.43-1.08 1.16-1.08 2.24 0 1 .26 1.77.83 2.29.99.69 2.59 1.08 4.92 1.08zm2.6-17.4c0-1.5-.22-2.67-.61-3.4-.43-.9-1.3-1.34-2.47-1.34-1.07 0-1.85.43-2.33 1.3-.52.81-.73 1.98-.73 3.45 0 1.68.21 2.89.6 3.62.4.74 1.21 1.08 2.47 1.08 1.12 0 1.85-.39 2.33-1.12.52-.78.73-1.94.73-3.58zM152.74 78.23c0-.52-.04-.78-.17-.9a1.92 1.92 0 00-.44-.44c-.43-.13-1.38-.17-2.93-.17v-.35l6.91-.56v4.58c.13-1 .43-1.9 1-2.81.77-1.16 1.77-1.77 2.93-1.77.43 0 .95.17 1.47.43s.9.65 1.08 1.12c.17.44.26.82.26 1.21 0 .95-.39 1.6-1.17 1.94-.17.13-.43.18-.77.18-.52 0-.91-.18-1.21-.52-.35-.35-.52-.82-.52-1.51 0-.43.17-.82.52-1.3.34-.43.73-.6 1.12-.51-.17-.52-.56-.78-1.3-.78-.64 0-1.38.52-2.07 1.51-.9 1.3-1.34 2.93-1.34 5v6.7c0 .51.04.77.13.94.04.05.17.18.35.22.51.17 1.55.26 3.1.26v.34h-10.5v-.34c.66 0 1.35 0 1.9-.04.57-.05 1.09-.18 1.48-.26.17-.13.21-.43.21-1.08v-11.1h-.04zM172.62 80.73v-2.11c0-.95-.18-1.6-.44-1.95-.26-.34-.95-.51-1.94-.51-.82 0-1.56.17-2.16.51-.6.35-1 .74-1.21 1.3.13 0 .22-.04.34-.04.44 0 .83.17 1.13.56.26.34.43.77.43 1.2 0 .52-.17.95-.56 1.3-.35.34-.78.52-1.3.52-.34 0-.6-.13-.82-.22-.73-.43-1.08-1-1.08-1.72 0-.35.04-.74.22-1.17.34-.95 1.16-1.6 2.5-2.07a8.42 8.42 0 012.9-.43c1.77 0 3.1.34 4.02.99.82.6 1.2 1.34 1.2 2.24v7.9c0 1.47.05 2.33.14 2.68.17.82.6 1.2 1.3 1.2.6 0 1.07-.34 1.29-.94.21-.65.34-1.56.34-2.8v-1V84.74h.44v1.56c0 .52 0 .99.04 1.47 0 1.38-.17 2.33-.52 2.8-.43.6-1.34.9-2.63.9-1.09 0-1.78-.17-2.3-.55-.6-.44-.99-1.17-1.16-2.16a4.18 4.18 0 01-2.3 2.33 7.2 7.2 0 01-2.41.34c-1 0-1.9-.21-2.64-.73-1-.65-1.55-1.6-1.55-2.94 0-1.29.52-2.41 1.51-3.27 1-.82 2.25-1.34 3.63-1.47 1.47-.13 2.42-.35 2.9-.56.47-.22.69-.82.69-1.73zm-.13 6.52v-4.8c-.26.4-.74.61-1.3.74s-1.12.17-1.6.22c-.65.17-1.2.56-1.68 1.16a5.13 5.13 0 00-.74 3.02c0 1.38.13 2.33.39 2.85s.73.73 1.3.73c.9 0 1.72-.38 2.46-1.12a3.6 3.6 0 001.17-2.8zM195.21 80.17c.18-1.12.44-1.94.82-2.63.6-1 1.39-1.6 2.47-1.73.17 0 .34 0 .56-.04.21 0 .34-.05.43-.05 1.47 0 2.68.44 3.5 1.39a3.85 3.85 0 011.12 2.71v9.54c0 .43.05.78.13.9.05.14.18.18.35.27.17.04.52.13.95.17.43.04.82.04 1.17.04v.35h-8.47v-.35c.56 0 1 0 1.34-.04.34-.04.64-.17.99-.35.17-.13.22-.43.22-.99v-9.1c0-1.13-.13-1.99-.26-2.64-.35-.99-.91-1.5-1.69-1.5-.82 0-1.55.38-2.12 1.16-.6.9-1.12 2.5-1.46 4.83v7.2c0 .53.04.79.13.96.04.04.17.13.34.21.17.05.43.13.9.18.44.04.83.13 1.22.13v.34h-8.56v-.34c.91 0 1.6-.05 2.12-.26l.26-.13c.17-.13.22-.43.22-1.08v-9.1c0-1.17-.13-2-.26-2.64-.35-1-.91-1.51-1.73-1.51-1.08 0-1.9.65-2.5 2.07a16.4 16.4 0 00-.96 4.14v7.08c0 .52.05.78.13.95.05.04.17.17.35.22.17.04.52.13.95.17.43.04.82.04 1.16.04v.35h-9.16v-.35c.52 0 1 0 1.52-.04s.95-.17 1.38-.26c.17-.13.22-.43.22-1.08V78.5v-.65c0-.22-.05-.39-.18-.52a1.92 1.92 0 00-.43-.43 9.58 9.58 0 00-2.46-.17v-.26l6.48-.6v4.57c.17-1.17.43-2.07.78-2.72.56-1.12 1.38-1.73 2.46-1.86.22 0 .43-.04.6-.04h.4c1.55 0 2.67.43 3.5 1.3.68.77 1.07 1.8 1.07 3.06z"/>
</svg>
